X:0292
T:The Lasses of Melross.
M:6/8
L:1/8
Q:3/8=120
I: || ::
Z:Jack Campin * www.campin.me.uk * 2009
K:G
d|TB>AB GAB|Tc>Bc ABc | BAB     GAB|AFD D2
c| BAB  GAB| cBc  ABc |(B/c/d)B cAF|G3  G2||
f| gbg  gbg| ac'a ac'a| gbg     gbg|afd d2
f| gbg  gbg| ac'a abc'| bag     agf|g3  g2:|
<end>
<start>
